default/images/icon/whatsapp.svg

<svg xmlns="http://www.w3.org/2000/svg" viewBox="0 0 20 20"><rect x="0" fill="none" width="20" height="20"/><g><path d="M16.8 5.7C14.4 2 9.5.9 5.7 3.2 2 5.5.8 10.5 3.2 14.2l.2.3-.8 3 3-.8.3.2c1.3.7 2.7 1.1 4.1 1.1 1.5 0 3-.4 4.3-1.2 3.7-2.4 4.8-7.3 2.5-11.1zm-2.1 7.7c-.4.6-.9 1-1.6 1.1-.4 0-.9.2-2.9-.6-1.7-.8-3.1-2.1-4.1-3.6-.6-.7-.9-1.6-1-2.5 0-.8.3-1.5.8-2 .2-.2.4-.3.6-.3H7c.2 0 .4 0 .5.4.2.5.7 1.7.7 1.8.1.1.1.3 0 .4.1.2 0 .4-.1.5-.1.1-.2.3-.3.4-.2.1-.3.3-.2.5.4.6.9 1.2 1.4 1.7.6.5 1.2.9 1.9 1.2.2.1.4.1.5-.1s.6-.7.8-.9c.2-.2.3-.2.5-.1l1.6.8c.2.1.4.2.5.3.1.3.1.7-.1 1z"/></g></svg>

<?xml version="1.0" encoding="utf-8"?>
<!-- Generator: Adobe Illustrator 24.3.0, SVG Export Plug-In . SVG Version: 6.00 Build 0)  -->
<svg version="1.1" id="レイヤー_1" xmlns="http://www.w3.org/2000/svg" xmlns:xlink="http://www.w3.org/1999/xlink" x="0px"
	 y="0px" viewBox="0 0 20 20" style="enable-background:new 0 0 20 20;" xml:space="preserve">
<style type="text/css">
	.st0{fill:none;}
	.st1{fill:#FFFFFF;}
</style>
<rect class="st0" width="20" height="20"/>
<g>
	<path class="st1" d="M16.8,5.7C14.4,2,9.5,0.9,5.7,3.2c-3.7,2.3-4.9,7.3-2.5,11l0.2,0.3l-0.8,3l3-0.8l0.3,0.2
		C7.2,17.6,8.6,18,10,18c1.5,0,3-0.4,4.3-1.2C18,14.4,19.1,9.5,16.8,5.7z M14.7,13.4c-0.4,0.6-0.9,1-1.6,1.1c-0.4,0-0.9,0.2-2.9-0.6
		c-1.7-0.8-3.1-2.1-4.1-3.6c-0.6-0.7-0.9-1.6-1-2.5c0-0.8,0.3-1.5,0.8-2c0.2-0.2,0.4-0.3,0.6-0.3H7c0.2,0,0.4,0,0.5,0.4
		c0.2,0.5,0.7,1.7,0.7,1.8c0.1,0.1,0.1,0.3,0,0.4c0.1,0.2,0,0.4-0.1,0.5C8,8.7,7.9,8.9,7.8,9C7.6,9.1,7.5,9.3,7.6,9.5
		C8,10.1,8.5,10.7,9,11.2c0.6,0.5,1.2,0.9,1.9,1.2c0.2,0.1,0.4,0.1,0.5-0.1s0.6-0.7,0.8-0.9s0.3-0.2,0.5-0.1l1.6,0.8
		c0.2,0.1,0.4,0.2,0.5,0.3C14.9,12.7,14.9,13.1,14.7,13.4z"/>
</g>
</svg>
